static/icons/reliable_database.svg

<svg width="120" height="80" viewBox="0 0 120 80" fill="none" xmlns="http://www.w3.org/2000/svg">
<path d="M0.680664 71.5184C0.680664 75.8116 8.63878 79.2671 18.4294 79.2671C28.2199 79.2671 36.178 75.8116 36.178 71.5184V37.9583C36.178 42.2514 28.2199 45.7069 18.4294 45.7069C8.63878 45.7069 0.680664 42.2514 0.680664 37.9583V71.5184Z" fill="#EBECE9"/>
<path d="M36.2303 37.9583V71.5184C36.2303 75.8116 28.2722 79.2671 18.4816 79.2671C10.2617 79.2671 3.29837 76.8064 1.30884 73.508C5.60203 75.4451 10.2617 76.3875 14.9738 76.2828C24.8167 76.2828 32.7225 72.8273 32.7225 68.5341V42.6179C34.9214 41.309 36.2303 39.686 36.2303 37.9583Z" fill="#C1C1C1"/>
<path d="M18.4816 45.7068C28.2839 45.7068 36.2303 42.2376 36.2303 37.9582C36.2303 33.6787 28.2839 30.2095 18.4816 30.2095C8.67927 30.2095 0.73291 33.6787 0.73291 37.9582C0.73291 42.2376 8.67927 45.7068 18.4816 45.7068Z" fill="#EBECE9"/>
<path d="M18.4817 46.3874C8.11518 46.3874 0 42.6702 0 37.9581C0 33.2461 8.11518 29.5288 18.4817 29.5288C28.8482 29.5288 36.9633 33.2461 36.9633 37.9581C36.9633 42.6702 28.7958 46.3874 18.4817 46.3874ZM18.4817 30.8901C9.21466 30.8901 1.36126 34.1361 1.36126 37.9581C1.36126 41.7801 9.21466 45.0262 18.4817 45.0262C27.7487 45.0262 35.5497 41.7801 35.5497 37.9581C35.5497 34.1361 27.7487 30.8901 18.4817 30.8901Z" fill="#244583"/>
<path d="M18.4817 57.5916C8.11518 57.5916 0 53.8744 0 49.1623C0 48.7958 0.314136 48.4817 0.680628 48.4817C1.04712 48.4817 1.36126 48.7958 1.36126 49.1623C1.36126 52.9843 9.1623 56.2304 18.4293 56.2304C27.6963 56.2304 35.4974 52.9843 35.4974 49.1623C35.4974 48.7958 35.8115 48.4817 36.178 48.4817C36.5445 48.4817 36.8586 48.7958 36.8586 49.1623C36.911 53.8744 28.7958 57.5916 18.4817 57.5916Z" fill="#22417D"/>
<path d="M18.4817 68.7957C8.11518 68.7957 0 65.0785 0 60.3664C0 59.9999 0.314136 59.6858 0.680628 59.6858C1.04712 59.6858 1.36126 59.9999 1.36126 60.3664C1.36126 64.1884 9.1623 67.4345 18.4293 67.4345C27.6963 67.4345 35.4974 64.1884 35.4974 60.3664C35.4974 59.9999 35.8115 59.6858 36.178 59.6858C36.5445 59.6858 36.8586 59.9999 36.8586 60.3664C36.911 65.0785 28.7958 68.7957 18.4817 68.7957Z" fill="#22417D"/>
<path d="M0.680628 31.4137C0.314136 31.4137 0 31.0995 0 30.733C0 30.5236 0.104712 30.3142 0.26178 30.2095C0.628272 29.9477 1.04712 29.6336 1.46597 29.4241C1.7801 29.2147 2.19895 29.3194 2.40838 29.6336C2.6178 29.9477 2.51309 30.3666 2.19895 30.576C1.83246 30.8378 1.41361 31.0472 1.09948 31.309C0.994764 31.3613 0.837696 31.4137 0.680628 31.4137Z" fill="#EBECE9"/>
<path d="M5.23556 29.0053C4.86907 29.0053 4.55493 28.6911 4.55493 28.3246C4.55493 28.0629 4.712 27.8011 4.97378 27.6964C8.74341 26.2828 12.7748 25.5498 16.8062 25.4451C17.1727 25.4451 17.4869 25.7068 17.5392 26.1257C17.5392 26.4922 17.2774 26.8063 16.8586 26.8587C12.9843 26.9634 9.10991 27.6964 5.49734 29.0576C5.39263 29.0053 5.28792 29.0053 5.23556 29.0053Z" fill="#EBECE9"/>
<path d="M18.4817 80.0001C8.11518 80.0001 0 76.2828 0 71.5708V37.9582C0 37.5917 0.314136 37.2776 0.680628 37.2776C1.04712 37.2776 1.36126 37.5917 1.36126 37.9582C1.36126 41.7802 9.21466 45.0263 18.4817 45.0263C27.7487 45.0263 35.5497 41.7802 35.5497 37.9582C35.5497 37.5917 35.8639 37.2776 36.2304 37.2776C36.5969 37.2776 36.911 37.5917 36.911 37.9582V71.5184C36.911 76.2828 28.7958 80.0001 18.4817 80.0001ZM1.36126 41.2043V71.5184C1.36126 75.3404 9.1623 78.5865 18.4293 78.5865C27.6963 78.5865 35.4974 75.3404 35.4974 71.5184V41.2043C32.7749 44.2933 26.2304 46.3875 18.4293 46.3875C10.6283 46.3875 4.13613 44.2933 1.36126 41.2043Z" fill="#244583"/>
<path d="M14.1362 52.6178C13.9791 52.5655 13.8744 52.5131 13.7173 52.4608C13.4032 52.3561 13.089 52.5131 12.932 52.7749C12.8273 53.0891 12.9843 53.4032 13.2985 53.5079C13.2985 53.5079 13.2985 53.5079 13.3508 53.5079C13.5079 53.5603 13.6126 53.6126 13.7697 53.665C14.0314 53.7697 14.3979 53.665 14.5026 53.3508C14.6074 53.0891 14.5026 52.7226 14.1885 52.6178C14.1885 52.6702 14.1885 52.6178 14.1362 52.6178Z" fill="white"/>
<path d="M23.7697 52.513C21.4137 53.4554 18.8482 53.6649 16.3351 53.1937C16.021 53.1413 15.7069 53.3507 15.6545 53.6649C15.6021 53.979 15.8116 54.2931 16.1257 54.3455C16.1257 54.3455 16.1257 54.3455 16.1781 54.3455C18.8482 54.8691 21.6231 54.6596 24.1362 53.6649C24.4503 53.5602 24.6074 53.246 24.555 52.9319C24.555 52.9319 24.555 52.9319 24.555 52.8795C24.4503 52.513 24.0838 52.356 23.7697 52.513Z" fill="white"/>
<path d="M113.926 30.8378V44.4504C113.926 47.2776 111.675 49.5289 108.848 49.5289H47.6437C44.8165 49.5289 42.5652 47.2776 42.5652 44.4504V30.8378C42.5652 28.0629 44.8165 25.7593 47.5914 25.7593H108.796C111.675 25.7593 113.926 28.0106 113.926 30.8378Z" fill="#EBECE9"/>
<path d="M85.8638 38.5865H51.2041C50.6806 38.5865 50.2617 38.2201 50.2617 37.8012C50.2617 37.3824 50.6806 37.0159 51.2041 37.0159H85.8638C86.3874 37.0159 86.8062 37.3824 86.8062 37.8012C86.8062 38.2201 86.3874 38.5865 85.8638 38.5865Z" fill="#244583"/>
<path d="M113.926 59.5288V73.1414C113.926 75.9686 111.675 78.2199 108.848 78.2199H47.6437C44.8165 78.2199 42.5652 75.9686 42.5652 73.1414V59.4765C42.5652 56.7016 44.8165 54.3979 47.5914 54.3979H108.796C111.675 54.3979 113.926 56.7016 113.926 59.5288C113.926 59.4765 113.926 59.4765 113.926 59.5288Z" fill="#EBECE9"/>
<path d="M113.927 30.8377V44.4502C113.927 46.911 112.146 49.0052 109.738 49.4241C109.79 49.1099 109.79 48.7958 109.79 48.4816V34.8691C109.79 32.0419 107.539 29.7906 104.712 29.7906H43.5077C43.1936 29.7906 42.9318 29.7906 42.6177 29.8429C43.0889 27.4345 45.1831 25.7068 47.5915 25.7068H108.796C111.675 25.7591 113.927 28.0105 113.927 30.8377Z" fill="#C1C1C1"/>
<path d="M113.927 59.5288V73.1414C113.927 75.6021 112.146 77.6964 109.738 78.1152C109.79 77.8011 109.79 77.4869 109.79 77.1728V63.5602C109.79 60.733 107.539 58.4817 104.712 58.4817H43.5077C43.1936 58.4817 42.9318 58.4817 42.6177 58.5341C43.0365 56.1257 45.1308 54.3979 47.5915 54.3979H108.796C111.675 54.3979 113.927 56.7016 113.927 59.5288C113.927 59.5288 113.927 59.4765 113.927 59.5288Z" fill="#C1C1C1"/>
<path d="M85.8638 67.2775H51.2041C50.6806 67.2775 50.2617 66.9634 50.2617 66.5445C50.2617 66.1257 50.6806 65.8115 51.2041 65.8115H85.8638C86.3874 65.8115 86.8062 66.1257 86.8062 66.5445C86.8062 66.9634 86.3874 67.2775 85.8638 67.2775Z" fill="#244583"/>
<path d="M48.1672 49.5288H108.324V54.3979H48.1672V49.5288Z" fill="#C1C1C1"/>
<path d="M108.953 55.0786H47.5391V48.9006H109.005V55.0786H108.953ZM48.848 53.7697H107.696V50.2095H48.848V53.7697Z" fill="#244583"/>
<path d="M104.398 40.3142C105.872 40.3142 107.068 39.1187 107.068 37.644C107.068 36.1693 105.872 34.9739 104.398 34.9739C102.923 34.9739 101.728 36.1693 101.728 37.644C101.728 39.1187 102.923 40.3142 104.398 40.3142Z" fill="#9FEFDE"/>
<path d="M104.398 40.8901C102.618 40.8901 101.204 39.4765 101.204 37.6964C101.204 35.9163 102.67 34.5027 104.398 34.5027C106.126 34.5027 107.592 35.9163 107.592 37.6964C107.644 39.4241 106.178 40.8901 104.398 40.8901ZM104.398 35.4974C103.194 35.4974 102.251 36.4922 102.251 37.644C102.251 38.7959 103.246 39.7906 104.398 39.7906C105.602 39.7906 106.544 38.7959 106.544 37.644C106.544 36.4922 105.602 35.4974 104.398 35.4974Z" fill="#244583"/>
<path d="M93.7693 40.3142C95.244 40.3142 96.4395 39.1187 96.4395 37.644C96.4395 36.1693 95.244 34.9739 93.7693 34.9739C92.2946 34.9739 91.0991 36.1693 91.0991 37.644C91.0991 39.1187 92.2946 40.3142 93.7693 40.3142Z" fill="#9FEFDE"/>
<path d="M93.7694 40.8901C91.9893 40.8901 90.5757 39.4765 90.5757 37.6964C90.5757 35.9163 91.9893 34.5027 93.7694 34.5027C95.5495 34.5027 96.9631 35.9163 96.9631 37.6964C96.9631 39.4241 95.5495 40.8901 93.7694 40.8901ZM93.7694 35.4974C92.5652 35.4974 91.6228 36.4922 91.6228 37.644C91.6228 38.7959 92.6176 39.7906 93.7694 39.7906C94.9736 39.7906 95.916 38.7959 95.916 37.644C95.916 36.4922 94.9736 35.4974 93.7694 35.4974Z" fill="#244583"/>
<path d="M104.398 69.0051C105.872 69.0051 107.068 67.8096 107.068 66.3349C107.068 64.8603 105.872 63.6648 104.398 63.6648C102.923 63.6648 101.728 64.8603 101.728 66.3349C101.728 67.8096 102.923 69.0051 104.398 69.0051Z" fill="#9FEFDE"/>
<path d="M104.398 69.5288C102.618 69.5288 101.204 68.1152 101.204 66.3351C101.204 64.555 102.67 63.1414 104.398 63.1414C106.126 63.1414 107.592 64.555 107.592 66.3351C107.644 68.0628 106.178 69.5288 104.398 69.5288ZM104.398 64.1361C103.194 64.1361 102.251 65.1309 102.251 66.2827C102.251 67.4869 103.246 68.4293 104.398 68.4293C105.602 68.4293 106.544 67.4345 106.544 66.2827C106.597 65.1309 105.602 64.1361 104.398 64.1361Z" fill="#244583"/>
<path d="M93.7693 69.0051C95.244 69.0051 96.4395 67.8096 96.4395 66.3349C96.4395 64.8603 95.244 63.6648 93.7693 63.6648C92.2946 63.6648 91.0991 64.8603 91.0991 66.3349C91.0991 67.8096 92.2946 69.0051 93.7693 69.0051Z" fill="#9FEFDE"/>
<path d="M93.7694 69.5288C91.9893 69.5288 90.5757 68.1152 90.5757 66.3351C90.5757 64.555 91.9893 63.1414 93.7694 63.1414C95.5495 63.1414 96.9631 64.555 96.9631 66.3351C96.9631 68.0628 95.5495 69.5288 93.7694 69.5288ZM93.7694 64.1361C92.5652 64.1361 91.6228 65.1309 91.6228 66.2827C91.6228 67.4869 92.6176 68.4293 93.7694 68.4293C94.9736 68.4293 95.916 67.4345 95.916 66.2827C95.916 65.1309 94.9736 64.1361 93.7694 64.1361Z" fill="#244583"/>
<path d="M108.272 79.1623H47.0679C43.9265 79.1623 41.3611 76.5968 41.3611 73.4555V59.7905C41.3611 56.6492 43.9265 54.0837 47.0679 54.0837H108.272C109.79 54.0837 111.256 54.6597 112.303 55.7591C113.403 56.8586 113.979 58.2722 113.979 59.7905V73.4555C114.031 76.5968 111.466 79.1623 108.272 79.1623ZM47.0679 55.3926C44.6595 55.3926 42.67 57.3822 42.67 59.7905V73.4555C42.67 75.9162 44.6595 77.8534 47.0679 77.8534H108.272C110.733 77.8534 112.67 75.8638 112.67 73.4555V59.7905C112.67 58.5864 112.199 57.4869 111.361 56.6492C110.523 55.8115 109.424 55.3403 108.22 55.3403H47.0679V55.3926Z" fill="#244583"/>
<path d="M56.9632 73.0891H56.1778C55.6019 73.0891 55.0784 72.6179 55.0784 71.9896C55.0784 71.4137 55.5496 70.8901 56.1778 70.8901H56.9632C57.5391 70.8901 58.0627 71.3613 58.0627 71.9896C58.0627 72.6179 57.5915 73.0891 56.9632 73.0891Z" fill="white"/>
<path d="M73.3506 73.0891H60.628C60.0521 73.0891 59.5286 72.6179 59.5286 71.9896C59.5286 71.4137 59.9998 70.8901 60.628 70.8901H73.3506C73.9265 70.8901 74.45 71.3613 74.45 71.9896C74.45 72.6179 73.9265 73.0891 73.3506 73.0891Z" fill="white"/>
<path d="M108.691 50.0524H47.4868C44.3455 50.0524 41.78 47.487 41.78 44.3456V30.6807C41.78 27.5393 44.3455 24.9739 47.4868 24.9739H108.691C111.832 24.9739 114.398 27.5393 114.398 30.6807V44.3456C114.45 47.487 111.885 50.0524 108.691 50.0524ZM47.4868 26.2828C45.0785 26.2828 43.0889 28.2723 43.0889 30.6807V44.3456C43.0889 46.8063 45.0785 48.7435 47.4868 48.7435H108.691C111.152 48.7435 113.089 46.754 113.089 44.3456V30.6807C113.089 28.2723 111.099 26.2828 108.691 26.2828H47.4868Z" fill="#244583"/>
<path d="M118.586 38.8482C119.005 38.8482 119.371 38.4817 119.371 38.0628V34.5026C119.371 34.0838 119.005 33.7173 118.586 33.7173C118.167 33.7173 117.801 34.0838 117.801 34.5026V38.0628C117.801 38.4817 118.115 38.8482 118.586 38.8482Z" fill="#EBECE9"/>
<path d="M118.586 31.8325C119.005 31.8325 119.372 31.466 119.372 31.0472V29.7383C119.372 24.4503 115.078 20.1571 109.79 20.1571C109.372 20.1571 109.005 20.5236 109.005 20.9424C109.005 21.3613 109.372 21.7278 109.79 21.7278C114.188 21.7278 117.801 25.288 117.801 29.7383V31.0472C117.801 31.466 118.115 31.8325 118.586 31.8325Z" fill="#EBECE9"/>
<path d="M40.0523 0.890106C37.4345 2.5655 31.3088 6.12571 23.8219 7.74874C22.6701 8.01052 21.78 9.00528 21.78 10.2095V30.4189C21.78 32.5655 22.0942 34.6597 22.7224 36.7016C24.0837 41.0995 26.8062 44.9738 30.5758 47.644L40.5235 54.8691C41.0471 55.2356 41.78 55.2356 42.3036 54.8691L52.2512 47.644C55.9685 44.9215 58.7434 41.0995 60.1046 36.7016C60.7329 34.6597 61.0471 32.5655 61.0471 30.4189V10.2095C61.0471 9.00528 60.2094 8.01052 59.0052 7.74874C51.5183 6.17806 45.3926 2.61785 42.7748 0.890106C41.9371 0.366547 40.89 0.366547 40.0523 0.890106Z" fill="#9FEFDE"/>
<path d="M59.0574 7.53927C58.848 7.48691 58.6386 7.43456 58.4815 7.3822C58.848 7.80105 59.0574 8.37697 59.0574 8.95288V29.3194C59.0574 31.466 58.7433 33.5602 58.0627 35.6021C56.6491 40.0523 53.7695 43.9267 49.8951 46.6492L39.581 53.9267C39.3192 54.0837 39.0574 54.1885 38.7957 54.1885L39.8428 54.9214C40.4187 55.2879 41.1517 55.2879 41.6752 54.9214L51.9894 47.644C55.8637 44.9214 58.7433 41.0471 60.1569 36.5968C60.7852 34.555 61.1517 32.4084 61.1517 30.3141V10.0524C61.1517 8.84817 60.2616 7.80105 59.0574 7.53927Z" fill="#24C4A1"/>
<path d="M41.4135 55.6544C40.9947 55.6544 40.5759 55.5497 40.2094 55.2879L30.2617 48.0628C26.4397 45.2879 23.6125 41.3089 22.2512 36.8063C21.623 34.712 21.3088 32.5654 21.3088 30.4188V10.2094C21.3088 8.79581 22.356 7.53926 23.7696 7.22513C31.3088 5.65445 37.4868 1.98953 39.7905 0.471204C40.7853 -0.157068 42.0942 -0.157068 43.0889 0.471204C45.3926 1.98953 51.623 5.65445 59.1099 7.22513C60.5235 7.53926 61.5706 8.79581 61.5706 10.2094V30.4188C61.5706 32.6178 61.2565 34.7644 60.6282 36.8063C59.267 41.3089 56.3874 45.2879 52.6177 48.0628L42.6701 55.2879C42.2512 55.4973 41.8324 55.6544 41.4135 55.6544ZM40.3141 1.36126C37.3821 3.24607 31.3612 6.70157 23.9266 8.27225C22.9842 8.48167 22.3036 9.26701 22.3036 10.2618V30.4712C22.3036 32.5654 22.6177 34.6073 23.246 36.5968C24.5549 40.89 27.2774 44.6597 30.89 47.2775L40.8376 54.4502C41.2041 54.712 41.6753 54.712 42.0418 54.4502L51.9895 47.2251C55.602 44.6073 58.3245 40.7853 59.6334 36.5445C60.2617 34.555 60.5759 32.5131 60.5759 30.4188V10.2094C60.5759 9.26701 59.8952 8.42931 58.9528 8.21989C51.5706 6.64921 45.4973 3.19371 42.5654 1.3089C41.8324 0.890052 40.9947 0.890052 40.3141 1.36126Z" fill="#244583"/>
<path d="M48.0628 16.8063L37.5393 28.8482L34.0838 26.0733C32.5655 24.8167 30.3141 25.0785 29.0576 26.5969C27.8011 28.1152 28.0628 30.3665 29.5812 31.623L38.377 38.7434L53.4031 21.5707C54.712 20.1047 54.555 17.8534 53.0367 16.5445C51.623 15.1832 49.3194 15.3403 48.0628 16.8063Z" fill="#EBECE9"/>
<path d="M38.4293 39.3717L29.267 31.9895C28.4293 31.3089 27.9057 30.3141 27.801 29.267C27.6963 28.1676 28.0104 27.1204 28.691 26.2827C30.1047 24.555 32.6701 24.2932 34.4502 25.7068L37.5392 28.1676L47.6439 16.4922C49.1099 14.8168 51.7277 14.6073 53.4031 16.1257C54.2408 16.8587 54.712 17.8534 54.8167 18.9005C54.869 20 54.5549 21.0471 53.8219 21.8325L38.4293 39.3717ZM31.8324 25.7592C30.9423 25.7592 30.0523 26.1257 29.4764 26.911C28.9528 27.5393 28.7434 28.3246 28.7958 29.1623C28.9005 29.9477 29.267 30.6806 29.8952 31.2042L38.3245 38.0105L53.0366 21.2042C53.5601 20.5759 53.8219 19.7906 53.7696 19.0053C53.7172 18.1676 53.3507 17.4346 52.7224 16.911C51.4659 15.8115 49.5287 15.9162 48.3769 17.2251L37.5916 29.5288L33.7696 26.4398C33.1937 25.9686 32.513 25.7592 31.8324 25.7592Z" fill="#244583"/>
</svg>

<svg xmlns="http://www.w3.org/2000/svg" xmlns:xlink="http://www.w3.org/1999/xlink" width="120" height="80" fill="none" xmlns:v="https://vecta.io/nano"><style><![CDATA[.B{fill:#244583}.C{fill:#ebece9}.D{fill:#9fefde}.E{fill:#c1c1c1}]]></style><path d="M.681 71.518c0 4.293 7.958 7.749 17.749 7.749s17.749-3.456 17.749-7.749v-33.56c0 4.293-7.958 7.749-17.749 7.749S.681 42.251.681 37.958v33.56z" class="C"/><path d="M36.23 37.958v33.56c0 4.293-7.958 7.749-17.749 7.749-8.22 0-15.183-2.461-17.173-5.759 4.293 1.937 8.953 2.88 13.665 2.775 9.843 0 17.749-3.456 17.749-7.749V42.618c2.199-1.309 3.508-2.932 3.508-4.66z" class="E"/><path d="M18.482 45.707c9.802 0 17.749-3.469 17.749-7.749s-7.946-7.749-17.749-7.749S.733 33.679.733 37.958s7.946 7.749 17.749 7.749z" class="C"/><path d="M18.482 46.387C8.115 46.387 0 42.67 0 37.958s8.115-8.429 18.482-8.429 18.482 3.717 18.482 8.429-8.167 8.429-18.482 8.429zm0-15.497c-9.267 0-17.12 3.246-17.12 7.068s7.853 7.068 17.12 7.068S35.55 41.78 35.55 37.958s-7.801-7.068-17.068-7.068z" class="B"/><path d="M18.482 57.592C8.115 57.592 0 53.874 0 49.162c0-.367.314-.681.681-.681s.681.314.681.681c0 3.822 7.801 7.068 17.068 7.068s17.068-3.246 17.068-7.068c0-.367.314-.681.681-.681s.681.314.681.681c.052 4.712-8.063 8.429-18.377 8.429zm0 11.204C8.115 68.796 0 65.079 0 60.366c0-.367.314-.681.681-.681s.681.314.681.681c0 3.822 7.801 7.068 17.068 7.068s17.068-3.246 17.068-7.068c0-.367.314-.681.681-.681s.681.314.681.681c.052 4.712-8.063 8.429-18.377 8.429z" fill="#22417d"/><path d="M.681 31.414c-.366 0-.681-.314-.681-.681 0-.209.105-.419.262-.524.366-.262.785-.576 1.204-.785.314-.209.733-.105.942.21s.105.733-.209.942l-1.099.733c-.105.052-.262.105-.419.105zm4.555-2.409c-.366 0-.681-.314-.681-.681a.68.68 0 0 1 .419-.628c3.77-1.414 7.801-2.147 11.832-2.251.366 0 .681.262.733.681 0 .367-.262.681-.681.733-3.874.105-7.749.838-11.361 2.199-.105-.052-.209-.052-.262-.052z" class="C"/><path d="M18.482 80C8.115 80 0 76.283 0 71.571V37.958c0-.366.314-.681.681-.681s.681.314.681.681c0 3.822 7.853 7.068 17.12 7.068S35.55 41.78 35.55 37.958c0-.366.314-.681.681-.681s.681.314.681.681v33.56c0 4.764-8.115 8.482-18.429 8.482zM1.361 41.204v30.314c0 3.822 7.801 7.068 17.068 7.068s17.068-3.246 17.068-7.068V41.204c-2.722 3.089-9.267 5.183-17.068 5.183S4.136 44.293 1.361 41.204z" class="B"/><path d="M14.136 52.618l-.419-.157c-.314-.105-.628.052-.785.314-.105.314.052.628.367.733h.052l.419.157c.262.105.628 0 .733-.314.105-.262 0-.628-.314-.733 0 .052 0 0-.052 0zm9.634-.105c-2.356.942-4.922 1.152-7.435.681-.314-.052-.628.157-.681.471s.157.628.471.681h.052c2.67.524 5.445.314 7.958-.681.314-.105.471-.419.419-.733v-.052c-.105-.367-.471-.523-.785-.367z" fill="#fff"/><path d="M113.926 30.838V44.45a5.05 5.05 0 0 1-5.078 5.078H47.644a5.05 5.05 0 0 1-5.079-5.078V30.838c0-2.775 2.251-5.079 5.026-5.079h61.205c2.879 0 5.13 2.251 5.13 5.079z" class="C"/><path d="M85.864 38.587h-34.66c-.523 0-.942-.366-.942-.785s.419-.785.942-.785h34.66c.524 0 .942.366.942.785s-.419.785-.942.785z" class="B"/><path d="M113.926 59.529v13.613a5.05 5.05 0 0 1-5.078 5.078H47.644a5.05 5.05 0 0 1-5.079-5.078V59.477c0-2.775 2.251-5.079 5.026-5.079h61.205c2.879 0 5.13 2.304 5.13 5.131 0-.052 0-.052 0 0z" class="C"/><path d="M113.927 30.838V44.45c0 2.461-1.781 4.555-4.189 4.974.052-.314.052-.628.052-.943V34.869a5.05 5.05 0 0 0-5.078-5.079H43.508c-.314 0-.576 0-.89.052.471-2.408 2.565-4.136 4.974-4.136h61.205c2.879.052 5.131 2.304 5.131 5.131zm0 28.691v13.613c0 2.461-1.781 4.555-4.189 4.974.052-.314.052-.628.052-.942V63.56a5.05 5.05 0 0 0-5.078-5.079H43.508c-.314 0-.576 0-.89.052.419-2.408 2.513-4.136 4.974-4.136h61.205c2.879 0 5.131 2.304 5.131 5.131 0 0 0-.052 0 0z" class="E"/><path d="M85.864 67.278h-34.66c-.523 0-.942-.314-.942-.733s.419-.733.942-.733h34.66c.524 0 .942.314.942.733s-.419.733-.942.733z" class="B"/><path d="M48.167 49.529h60.157v4.869H48.167v-4.869z" class="E"/><path d="M108.953 55.079H47.539v-6.178h61.466v6.178h-.052zM48.848 53.77h58.848v-3.56H48.848v3.56z" class="B"/><use xlink:href="#B" class="D"/><path d="M104.398 40.89c-1.78 0-3.194-1.414-3.194-3.194s1.466-3.194 3.194-3.194 3.194 1.414 3.194 3.194c.052 1.728-1.414 3.194-3.194 3.194zm0-5.393c-1.204 0-2.147.995-2.147 2.147s.995 2.147 2.147 2.147c1.204 0 2.146-.995 2.146-2.147s-.942-2.147-2.146-2.147z" class="B"/><use xlink:href="#B" x="-10.629" class="D"/><path d="M93.769 40.89a3.17 3.17 0 0 1-3.194-3.194 3.17 3.17 0 1 1 6.387 0c0 1.728-1.414 3.194-3.194 3.194zm0-5.393c-1.204 0-2.147.995-2.147 2.147s.995 2.147 2.147 2.147c1.204 0 2.147-.995 2.147-2.147s-.942-2.147-2.147-2.147z" class="B"/><use xlink:href="#B" y="28.691" class="D"/><path d="M104.398 69.529c-1.78 0-3.194-1.414-3.194-3.194s1.466-3.194 3.194-3.194 3.194 1.414 3.194 3.194c.052 1.728-1.414 3.194-3.194 3.194zm0-5.393c-1.204 0-2.147.995-2.147 2.147 0 1.204.995 2.147 2.147 2.147 1.204 0 2.146-.995 2.146-2.147.053-1.152-.942-2.147-2.146-2.147z" class="B"/><use xlink:href="#B" x="-10.629" y="28.691" class="D"/><path d="M93.769 69.529a3.194 3.194 0 1 1 0-6.387 3.17 3.17 0 0 1 3.194 3.194 3.21 3.21 0 0 1-3.194 3.194zm0-5.393c-1.204 0-2.147.995-2.147 2.147 0 1.204.995 2.147 2.147 2.147 1.204 0 2.147-.995 2.147-2.147s-.942-2.147-2.147-2.147zm14.503 15.026H47.068c-3.141 0-5.707-2.565-5.707-5.707V59.791c0-3.141 2.565-5.707 5.707-5.707h61.204c1.518 0 2.984.576 4.031 1.675a5.62 5.62 0 0 1 1.676 4.031v13.665c.052 3.141-2.513 5.707-5.707 5.707zm-61.204-23.77a4.43 4.43 0 0 0-4.398 4.398v13.665a4.39 4.39 0 0 0 4.398 4.398h61.204a4.39 4.39 0 0 0 4.398-4.398V59.791a4.39 4.39 0 0 0-1.309-3.141c-.838-.837-1.937-1.309-3.141-1.309H47.068v.052z" class="B"/><path d="M56.963 73.089h-.785c-.576 0-1.099-.471-1.099-1.1 0-.576.471-1.099 1.099-1.099h.785c.576 0 1.099.471 1.099 1.099a1.07 1.07 0 0 1-1.099 1.1zm16.388 0H60.628c-.576 0-1.099-.471-1.099-1.1 0-.576.471-1.099 1.099-1.099h12.723c.576 0 1.099.471 1.099 1.099s-.523 1.1-1.099 1.1z" fill="#fff"/><path d="M108.691 50.052H47.487c-3.141 0-5.707-2.565-5.707-5.707V30.681c0-3.141 2.566-5.707 5.707-5.707h61.204c3.141 0 5.707 2.565 5.707 5.707v13.665c.052 3.141-2.513 5.707-5.707 5.707zm-61.204-23.77c-2.408 0-4.398 1.989-4.398 4.398v13.665a4.39 4.39 0 0 0 4.398 4.398h61.204a4.39 4.39 0 0 0 4.398-4.398V30.681c0-2.408-1.99-4.398-4.398-4.398H47.487z" class="B"/><path d="M118.586 38.848c.419 0 .785-.367.785-.785v-3.56c0-.419-.366-.785-.785-.785s-.785.366-.785.785v3.56a.77.77 0 0 0 .785.785zm0-7.015c.419 0 .786-.366.786-.785v-1.309a9.59 9.59 0 0 0-9.582-9.581c-.418 0-.785.366-.785.785s.367.785.785.785c4.398 0 8.011 3.56 8.011 8.011v1.309a.77.77 0 0 0 .785.785z" class="C"/><path d="M40.052.89c-2.618 1.675-8.744 5.236-16.23 6.859-1.152.262-2.042 1.257-2.042 2.461v20.209c0 2.147.314 4.241.942 6.283 1.361 4.398 4.084 8.272 7.853 10.942l9.948 7.225a1.58 1.58 0 0 0 1.78 0l9.948-7.225c3.717-2.722 6.492-6.544 7.853-10.942.628-2.042.943-4.136.943-6.283V10.21c0-1.204-.838-2.199-2.042-2.461C51.518 6.178 45.393 2.618 42.775.89c-.838-.524-1.885-.524-2.722 0z" class="D"/><path d="M59.057 7.539l-.576-.157c.367.419.576.995.576 1.571v20.367c0 2.147-.314 4.241-.995 6.283-1.414 4.45-4.293 8.325-8.168 11.047l-10.314 7.277c-.262.157-.524.262-.785.262l1.047.733c.576.367 1.309.367 1.832 0l10.314-7.277c3.874-2.723 6.754-6.597 8.167-11.047.628-2.042.995-4.188.995-6.283V10.052c0-1.204-.89-2.251-2.094-2.513z" fill="#24c4a1"/><path d="M41.414 55.654c-.419 0-.838-.105-1.204-.367l-9.948-7.225c-3.822-2.775-6.649-6.754-8.01-11.257-.628-2.094-.942-4.241-.942-6.387V10.209c0-1.414 1.047-2.67 2.461-2.984C31.309 5.654 37.487 1.99 39.791.471c.995-.628 2.304-.628 3.298 0 2.304 1.518 8.534 5.183 16.021 6.754 1.414.314 2.461 1.571 2.461 2.984v20.209a21.68 21.68 0 0 1-.942 6.387c-1.361 4.503-4.241 8.482-8.01 11.257l-9.948 7.225c-.419.209-.838.367-1.257.367zM40.314 1.361c-2.932 1.885-8.953 5.34-16.388 6.911-.942.209-1.623.995-1.623 1.99v20.209a20.22 20.22 0 0 0 .942 6.126c1.309 4.293 4.031 8.063 7.644 10.681l9.948 7.173a1.02 1.02 0 0 0 1.204 0l9.948-7.225c3.612-2.618 6.335-6.44 7.644-10.681a20.22 20.22 0 0 0 .942-6.126V10.209c0-.942-.681-1.78-1.623-1.99-7.382-1.571-13.455-5.026-16.387-6.911-.733-.419-1.571-.419-2.251.052z" class="B"/><path d="M48.063 16.806L37.539 28.848l-3.456-2.775c-1.518-1.257-3.77-.995-5.026.524s-.995 3.77.524 5.026l8.796 7.12 15.026-17.173c1.309-1.466 1.152-3.717-.366-5.026-1.414-1.361-3.717-1.204-4.974.262z" class="C"/><path d="M38.429 39.372l-9.162-7.382c-.838-.681-1.361-1.675-1.466-2.722-.105-1.099.209-2.147.89-2.984 1.414-1.728 3.979-1.989 5.759-.576l3.089 2.461 10.105-11.675c1.466-1.675 4.084-1.885 5.759-.367a4.21 4.21 0 0 1 1.414 2.775c.052 1.099-.262 2.147-.995 2.932L38.429 39.372zm-6.597-13.612c-.89 0-1.78.366-2.356 1.152-.524.628-.733 1.414-.681 2.251.105.785.471 1.518 1.099 2.042l8.429 6.806 14.712-16.806c.523-.628.785-1.414.733-2.199a2.91 2.91 0 0 0-1.047-2.094c-1.257-1.1-3.194-.995-4.346.314L37.592 29.529 33.77 26.44a3.02 3.02 0 0 0-1.937-.681z" class="B"/><defs ><path id="B" d="M104.398 40.314a2.67 2.67 0 1 0 0-5.34 2.67 2.67 0 1 0 0 5.34z"/></defs></svg>
